public/icons/levelup.svg

<svg width="154" height="94" viewBox="0 0 154 94" fill="none" xmlns="http://www.w3.org/2000/svg">
<path fill-rule="evenodd" clip-rule="evenodd" d="M129.433 11.9512C129.266 19.4192 134.568 22.9417 134.568 22.9417C134.568 22.9417 140.118 18.8845 140.279 11.6077C140.444 4.31806 134.345 0.0405273 134.345 0.0405273C134.345 0.0405273 129.596 4.48197 129.433 11.9512ZM119.435 29.709C121.627 36.6481 128.078 38.9499 128.078 38.9499C128.078 38.9499 132.193 34.0494 129.949 26.9269C127.696 19.8064 121.91 16.916 121.91 16.916C121.91 16.916 117.247 22.7712 119.435 29.709ZM141.275 26.2485C137.012 32.3808 139.478 38.2824 139.478 38.2824C139.478 38.2824 146.327 37.9924 150.472 32.0077C154.63 26.0265 151.929 19.0614 151.929 19.0614C151.929 19.0614 145.534 20.1109 141.275 26.2485ZM125.311 46.6027C126.611 53.959 121.897 58.2859 121.897 58.2859C121.897 58.2859 115.796 55.1553 114.526 47.9908C113.272 40.8212 118.648 35.6251 118.648 35.6251C118.648 35.6251 124.009 39.2507 125.311 46.6027ZM114.595 59.4505C113.987 51.9952 108.994 47.8809 108.994 47.8809C108.994 47.8809 103.153 52.5484 103.745 59.8067C104.337 67.0651 110.104 70.7581 110.104 70.7581C110.104 70.7581 115.199 66.9003 114.595 59.4505ZM94.6623 82.3673C94.6623 82.3673 90.1948 77.1593 91.7087 70.0291C93.2268 62.9001 100.16 60.1175 100.16 60.1175C100.16 60.1175 103.752 65.5088 102.202 72.8265C100.647 80.1431 94.6623 82.3673 94.6623 82.3673ZM135.485 53.1882C135.485 53.1882 134.871 46.8142 140.731 42.2114C146.605 37.6078 153.015 38.4945 153.015 38.4945C153.015 38.4945 153.555 45.9638 147.831 50.4515C142.105 54.9434 135.485 53.1882 135.485 53.1882ZM134.099 57.6355C127.363 60.8242 126.554 67.1795 126.554 67.1795C126.554 67.1795 132.623 70.3612 139.188 67.2645C145.753 64.1678 146.882 56.7554 146.882 56.7554C146.882 56.7554 140.837 54.4566 134.099 57.6355ZM115.795 77.8452C115.795 77.8452 118.477 72.0239 125.85 71.039C133.232 70.052 138.289 74.0824 138.289 74.0824C138.289 74.0824 134.982 80.8055 127.798 81.7676C120.608 82.7328 115.795 77.8452 115.795 77.8452ZM123.159 86.7526C123.159 86.7526 118.604 82.1452 111.17 82.2328C103.74 82.3257 100.398 87.7821 100.398 87.7821C100.398 87.7821 104.591 93.2148 111.836 93.1319C119.087 93.0275 123.159 86.7526 123.159 86.7526ZM132.731 26.9283L136.221 26.2339C136.292 26.6155 143.05 64.6318 88.3826 90.9234L86.8658 87.7129C138.902 62.676 133.011 28.3708 132.731 26.9283ZM11.7542 26.5488C16.0166 32.6811 13.5511 38.5827 13.5511 38.5827C13.5511 38.5827 6.70221 38.2927 2.55691 32.308C-1.60115 26.3268 1.09957 19.3617 1.09957 19.3617C1.09957 19.3617 7.49492 20.4112 11.7542 26.5488ZM24.9517 39.2502C24.9517 39.2502 31.4026 36.9483 33.5947 30.0093C35.7826 23.0715 31.1199 17.2163 31.1199 17.2163C31.1199 17.2163 25.3332 20.1067 23.0802 27.2272C20.8369 34.3497 24.9517 39.2502 24.9517 39.2502ZM31.1324 58.5862C31.1324 58.5862 26.4184 54.2593 27.7185 46.903C29.0197 39.551 34.3812 35.9254 34.3812 35.9254C34.3812 35.9254 39.757 41.1215 38.5027 48.2911C37.2334 55.4556 31.1324 58.5862 31.1324 58.5862ZM44.0354 48.1812C44.0354 48.1812 39.0422 52.2955 38.4348 59.7507C37.8305 67.2006 42.9252 71.0584 42.9252 71.0584C42.9252 71.0584 48.693 67.3653 49.2847 60.107C49.8764 52.8487 44.0354 48.1812 44.0354 48.1812ZM61.3204 70.3294C62.8342 77.4596 58.3668 82.6676 58.3668 82.6676C58.3668 82.6676 52.3821 80.4434 50.8274 73.1268C49.2769 65.809 52.8694 60.4178 52.8694 60.4178C52.8694 60.4178 59.8022 63.2004 61.3204 70.3294ZM18.4611 23.242C18.4611 23.242 23.7636 19.7195 23.5964 12.2515C23.4335 4.78226 18.6843 0.340821 18.6843 0.340821C18.6843 0.340821 12.585 4.61836 12.7499 11.908C12.9115 19.1848 18.4611 23.242 18.4611 23.242ZM12.298 42.5117C18.1581 47.1145 17.5438 53.4885 17.5438 53.4885C17.5438 53.4885 10.9237 55.2437 5.19819 50.7518C-0.526166 46.2641 0.0135873 38.7948 0.0135873 38.7948C0.0135873 38.7948 6.4239 37.9081 12.298 42.5117ZM26.4752 67.4798C26.4752 67.4798 25.6664 61.1245 18.9304 57.9358C12.1925 54.7569 6.147 57.0557 6.147 57.0557C6.147 57.0557 7.27566 64.4681 13.8409 67.5648C20.4062 70.6615 26.4752 67.4798 26.4752 67.4798ZM27.1795 71.3393C34.5522 72.3242 37.2347 78.1454 37.2347 78.1454C37.2347 78.1454 32.4213 83.0331 25.2318 82.0679C18.0477 81.1058 14.7403 74.3827 14.7403 74.3827C14.7403 74.3827 19.7971 70.3523 27.1795 71.3393ZM41.8586 82.5331C34.4252 82.4455 29.8698 87.0529 29.8698 87.0529C29.8698 87.0529 33.9424 93.3278 41.1932 93.4322C48.4382 93.5151 52.631 88.0824 52.631 88.0824C52.631 88.0824 49.2889 82.626 41.8586 82.5331ZM16.8083 26.5342L20.2978 27.2286C20.0183 28.6711 14.1273 62.9763 66.1634 88.0132L64.6466 91.2237C9.97913 64.9321 16.7372 26.9158 16.8083 26.5342Z" fill="url(#paint0_linear)"/>
<defs>
<linearGradient id="paint0_linear" x1="76.5145" y1="0.0405273" x2="76.5145" y2="93.4331" gradientUnits="userSpaceOnUse">
<stop stop-color="#9b49d1"/>
<stop offset="1" stop-color="#9b49d1" stop-opacity="0"/>
</linearGradient>
</defs>
</svg>

<?xml version="1.0" encoding="utf-8"?>
<!-- Generator: Adobe Illustrator 22.0.0, SVG Export Plug-In . SVG Version: 6.00 Build 0)  -->
<svg version="1.1" id="Layer_1" xmlns="http://www.w3.org/2000/svg" xmlns:xlink="http://www.w3.org/1999/xlink" x="0px" y="0px"
	 viewBox="0 0 154 94" style="enable-background:new 0 0 154 94;" xml:space="preserve">
<style type="text/css">
	.st0{fill:url(#SVGID_1_);}
</style>
<linearGradient id="SVGID_1_" gradientUnits="userSpaceOnUse" x1="76.5143" y1="95.9595" x2="76.5143" y2="2.5669" gradientTransform="matrix(1 0 0 -1 0 96)">
	<stop  offset="0" style="stop-color:#FFB7CA"/>
	<stop  offset="1" style="stop-color:#9B49D1;stop-opacity:0"/>
</linearGradient>
<path class="st0" d="M129.4,12c-0.2,7.5,5.1,11,5.1,11s5.6-4.1,5.7-11.3c0.2-7.3-5.9-11.6-5.9-11.6S129.6,4.5,129.4,12z M119.4,29.7
	c2.2,6.9,8.6,9.2,8.6,9.2s4.1-4.9,1.9-12c-2.3-7.1-8-10-8-10S117.2,22.8,119.4,29.7z M141.3,26.2c-4.3,6.1-1.8,12-1.8,12
	s6.8-0.3,11-6.3c4.2-6,1.5-12.9,1.5-12.9S145.5,20.1,141.3,26.2z M125.3,46.6c1.3,7.4-3.4,11.7-3.4,11.7s-6.1-3.1-7.4-10.3
	c-1.3-7.2,4.1-12.4,4.1-12.4S124,39.3,125.3,46.6z M114.6,59.5C114,52,109,47.9,109,47.9s-5.8,4.7-5.2,11.9c0.6,7.3,6.4,11,6.4,11
	S115.2,66.9,114.6,59.5z M94.7,82.4c0,0-4.5-5.2-3-12.3c1.5-7.1,8.5-9.9,8.5-9.9s3.6,5.4,2,12.7C100.6,80.1,94.7,82.4,94.7,82.4z
	 M135.5,53.2c0,0-0.6-6.4,5.2-11c5.9-4.6,12.3-3.7,12.3-3.7s0.5,7.5-5.2,12C142.1,54.9,135.5,53.2,135.5,53.2z M134.1,57.6
	c-6.7,3.2-7.5,9.5-7.5,9.5s6.1,3.2,12.6,0.1c6.6-3.1,7.7-10.5,7.7-10.5S140.8,54.5,134.1,57.6z M115.8,77.8c0,0,2.7-5.8,10.1-6.8
	c7.4-1,12.4,3,12.4,3s-3.3,6.7-10.5,7.7C120.6,82.7,115.8,77.8,115.8,77.8z M123.2,86.8c0,0-4.6-4.6-12-4.5
	c-7.4,0.1-10.8,5.5-10.8,5.5s4.2,5.4,11.4,5.3C119.1,93,123.2,86.8,123.2,86.8z M132.7,26.9l3.5-0.7c0.1,0.4,6.8,38.4-47.8,64.7
	l-1.5-3.2C138.9,62.7,133,28.4,132.7,26.9z M11.8,26.5c4.3,6.1,1.8,12,1.8,12s-6.8-0.3-11-6.3c-4.2-6-1.5-12.9-1.5-12.9
	S7.5,20.4,11.8,26.5z M25,39.3c0,0,6.5-2.3,8.6-9.2c2.2-6.9-2.5-12.8-2.5-12.8s-5.8,2.9-8,10C20.8,34.3,25,39.3,25,39.3z M31.1,58.6
	c0,0-4.7-4.3-3.4-11.7c1.3-7.4,6.7-11,6.7-11s5.4,5.2,4.1,12.4C37.2,55.5,31.1,58.6,31.1,58.6z M44,48.2c0,0-5,4.1-5.6,11.6
	c-0.6,7.4,4.5,11.3,4.5,11.3s5.8-3.7,6.4-11C49.9,52.8,44,48.2,44,48.2z M61.3,70.3c1.5,7.1-3,12.3-3,12.3s-6-2.2-7.5-9.5
	c-1.6-7.3,2-12.7,2-12.7S59.8,63.2,61.3,70.3z M18.5,23.2c0,0,5.3-3.5,5.1-11c-0.2-7.5-4.9-11.9-4.9-11.9s-6.1,4.3-5.9,11.6
	C12.9,19.2,18.5,23.2,18.5,23.2z M12.3,42.5c5.9,4.6,5.2,11,5.2,11s-6.6,1.8-12.3-2.7c-5.7-4.5-5.2-12-5.2-12S6.4,37.9,12.3,42.5z
	 M26.5,67.5c0,0-0.8-6.4-7.5-9.5c-6.7-3.2-12.8-0.9-12.8-0.9s1.1,7.4,7.7,10.5C20.4,70.7,26.5,67.5,26.5,67.5z M27.2,71.3
	c7.4,1,10.1,6.8,10.1,6.8s-4.8,4.9-12,3.9c-7.2-1-10.5-7.7-10.5-7.7S19.8,70.4,27.2,71.3z M41.9,82.5c-7.4-0.1-12,4.5-12,4.5
	s4.1,6.3,11.3,6.4c7.2,0.1,11.4-5.3,11.4-5.3S49.3,82.6,41.9,82.5z M16.8,26.5l3.5,0.7C20,28.7,14.1,63,66.2,88l-1.5,3.2
	C10,64.9,16.7,26.9,16.8,26.5z"/>
</svg>
